packages/icons/src/telephone.svg

<svg width="24" height="24" viewBox="0 0 24 24" fill="none" xmlns="http://www.w3.org/2000/svg">
<path fill-rule="evenodd" clip-rule="evenodd" d="M7 1C7.365 1 7.707 1.098 8.001 1.268C8.245 1.126 8.523 1.035 8.82 1.008L9 1H19C19.5046 0.99984 19.9906 1.19041 20.3605 1.5335C20.7305 1.87659 20.9572 2.34684 20.995 2.85L21 3V17C21.0002 17.5046 20.8096 17.9906 20.4665 18.3605C20.1234 18.7305 19.6532 18.9572 19.15 18.995L19 19H12V19.5C12.0001 20.3951 11.6572 21.2561 11.0419 21.9062C10.4267 22.5563 9.58572 22.9459 8.692 22.995L8.5 23C7.60493 23.0001 6.74385 22.6572 6.09379 22.0419C5.44373 21.4267 5.0541 20.5857 5.005 19.692L5 19.5V19C4.49542 19.0002 4.00943 18.8096 3.63945 18.4665C3.26947 18.1234 3.04284 17.6532 3.005 17.15L3 17V3C2.99984 2.49542 3.19041 2.00943 3.5335 1.63945C3.87659 1.26947 4.34684 1.04284 4.85 1.005L5 1H7ZM10 19H7V19.5C6.99992 19.8484 7.12115 20.186 7.34285 20.4548C7.56456 20.7236 7.87292 20.9068 8.215 20.973L8.355 20.993L8.5 21C8.87288 21 9.23239 20.8611 9.50842 20.6104C9.78445 20.3597 9.9572 20.0152 9.993 19.644L10 19.5V19ZM19 3H9V17H19V3ZM7 3H5V17H7V3ZM13 13V15H11V13H13ZM17 13V15H15V13H17ZM13 9V11H11V9H13ZM17 9V11H15V9H17ZM17 5V7H11V5H17Z" fill="black"/>
</svg>

<svg xmlns="http://www.w3.org/2000/svg" width="24" height="24" fill="none" viewBox="0 0 24 24">
  <path fill="#000" fill-rule="evenodd" d="M7 1c.365 0 .707.098 1.001.268.244-.142.522-.233.819-.26L9 1h10a2 2 0 0 1 1.995 1.85L21 3v14a2 2 0 0 1-1.85 1.995L19 19h-7v.5a3.5 3.5 0 0 1-3.308 3.495L8.5 23a3.5 3.5 0 0 1-3.495-3.308L5 19.5V19a2 2 0 0 1-1.995-1.85L3 17V3a2 2 0 0 1 1.85-1.995L5 1h2Zm3 18H7v.5a1.5 1.5 0 0 0 1.215 1.473l.14.02L8.5 21a1.5 1.5 0 0 0 1.493-1.356L10 19.5V19Zm9-16H9v14h10V3ZM7 3H5v14h2V3Zm6 10v2h-2v-2h2Zm4 0v2h-2v-2h2Zm-4-4v2h-2V9h2Zm4 0v2h-2V9h2Zm0-4v2h-6V5h6Z" clip-rule="evenodd"/>
</svg>
